X:40
M:2/4
L:1/8
K:G
(BAB).c|Bg "tr"g2|gfed|edcB|cBAG|AFED|GGBB|dd g2|BGDF|G2 G,2:|

